X:91
T:Rondeau de M. Desjean
R:rondeau
C:trad.
A:Landes
O:France
Z:S. Piron
M:6/8
L:1/8
Q:1/4=170
K:C
e2cd2d|GABcBc|e2cd2d|GABc3:|
|:e2ce2g|gfed2d|e2ce2g|gfed3:|
|:c2de2d|c2de3|g2agfe|1dcde2c:|2dedc3||
